X: 50
T: Akşam Erdi Yine Sular Karardı
C: Rahmi Bey
O: Turkey
F: http://compmusic.upf.edu/node/140
N: hicaz--sarki--curcuna--aksam_erdi--rahmi_bey
N: makam= hicaz
N: form= sarki
N: usul= curcuna = 10/8
M: 10/8
L: 1/16
K: C _7/8B ^f ^c 
Q: 1/4=192
%%MIDI tuningsystem comma53
c2d2 e4 d2dc dec4B2  | c2d2 e4 d2dc dec4B2  | \
w:  ARANAĞME  |   | 
A2G2 A2B2 c2d2 e2=f2 e2d2  | 
w:   | 
e2g2 =f2e2 d2e2 c2d4z2  | =c8-=c2c4c4=B2  | \
w:   |   | 
d6d4d2 c2B2 A2G2  | 
w:   | 
F2G2 A2B2 c2d2 e2c2 B2A2  | A2B2 d2c2 B2B2 A2A4z2  | \
w:   |   | 
c2d2 e4 d2dc dec4B2  | 
w:  ARANAĞME  | 
c2d2 e4 d2dc dec4B2  | A2G2 A2B2 c2d2 e2=f2 e2d2  | \
w:   |   | 
e2g2 =f2e2 d2e2 c2d4z2  | 
w:   | 
=c8-=c2c4c4=B2  | d6d4d2 c2B2 A2G2  | \
w:   |   | 
F2G2 A2B2 c2d2 e2c2 B2A2  | 
w:   | 
A2B2 d2c2 B2B2 A2A4z2  | d6d4c2 d2e4d2  | \
w:   |  Ak şam_ er  | 
d3c c6c2 d2dc BAB2  | 
w:  di   | 
z4 c2d4d2 c2B2 A2c2  | B2A2 e2d2 c2B2 A2G4z2  | \
w:  yi ne  su  |  lar   | 
g4 =f2e2 d2c2 d2e4d2  | 
w:  ka rar  | 
d8-d2c2 B2A4z2  | d6d4c2 d2e4d2  | d3c c6c2 d2dc BAB2  | 
w:  dı   SAZ  |  Ak şam_ er  |  di   | 
z4 c2d4d2 c2B2 A2c2  | B2A2 e2d2 c2B2 A2G4z2  | \
w:  yi ne  su  |  lar   | 
g4 =f2e2 d2c2 d2e4d2  | 
w:  ka rar  | 
d8-d2c2 d2e4z2  | z4 d2e4e4e4d2  | e2=f2 {a}g2f2 e2e2 d2{e}d2 c2=B2  | 
w:  dı   SAZ  |  Gün_ aş tı  gök  |  le *  *  *  *  *  ri   | 
e4 d2d4d2 =c2c4=B2  | d2c2 e2d2 c2B2 A2G4F2  | \
w:  yur *  du na  *  var  |  dı    | 
G18z2  | z4 G2G4G2 F2G6  | 
w:   |  Gün_ aş tı  *  gök  | 
F2G2 A4 G2G2 F2G6  | z4 A2B4B2 A2B4A2  | \
w:  le *  *  *  ri   |  ah   | 
e4 d2d2 c2c2 B2B4A2  | 
w:  yur *  du *  na  *  var  | 
A8-A2f2 g2a6  | z4 g2a4a4a6  | g4 =f2e4f2 e2d2 e2d2  | \
w:  dı   SAZ  |  Yü cel di  bu  |  lut *  *  lar   | 
c2B2 A2B2 c2B2 c2B4A2  | 
w:   | 
d4 c2B2 A2G4e4d2  | d4 g2f2 e2f2 g2a4z2  | \
w:  dağ *  la *  rı  sar  |  dı   SAZ  | 
z4 g2a4a4a6  | g4 =f2e4f2 e2d2 e2d2  | 
w:  Yü cel di  bu  |  lut *  *  lar   | 
c2B2 A2B2 c2B2 c2B4A2  | d4 c2B2 A2G4e4d2  | \
w:   |  dağ *  la *  rı  sar  | 
d4 =f2e2 d2c2 d2e4z2  | 
w:  dı   SAZ  | 
e4 d2e4e4e4d2  | e2=f2 {a}g2f2 e2e2 d2{e}d2 c2=B2  | \
w:  Çök *  tü  bir  mah  |  zun *  *  *  *  *  luk   | 
e4 d2d4d2 =c2c4=B2  | 
w:  ıs *  sız_ o *  va  | 
d2c2 e2d2 c2B2 A2G4F2  | G18z2  | G6G4G2 F2G6  | \
w:  ya    |   |  Çök tü  bir  *  mah  | 
F2G2 A4 G2G2 F2G6  | 
w:  zun *  *  *  luk   | 
z4 A2B4B2 A2B4A2  | e4 d2d2 c2c2 B2B4A2  | \
w:  ah   |  ıs *  sız_ *  o *  va  | 
A4 =f2e2 d2c2 B2A4z2  | 
w:  ya   SAZ  | 
|


